X: 16
T: The Irish Washerwoman
R: jig
M: 6/8
L: 1/8
K: Gmaj
dc|:B2G DGG|BGB dcB|{d}c2A DFA|{d}cBc edc|
BGG DGG|BGB dgd|{cd}cBc Adc|1BGG G2 d:|2BGG G3||
gfa gdg|gdg bag|fdf fdf|{a}gfg a2g|
efg dgg|ege dBG|cBc Adc|BGG G2g|
{a}gfa gdg|gdg bag|fdA DFA|f2g afd|
geg fdf|ecA dBG|c2{dcB}c ABc|def g3|]


Tune 92	Setting 12638

